X:382
T:Blinde Hans' polska.
R:polska
S:Efter »Florsen» i Burs.
N:»Blinde-Hansen» var en gammal spelman i Alskogs socken på 1860-talet.
O:Gotland, Burs
M:3/4
L:1/16
K:Dm
abag fgfe d2de|f2ed d^cec A4|d2d^c d2e2 f2g2|aba^g ^g4 a4::fefg a2f2 f2f2|
f2ef g2ag fed^c|defg a2f2 f2f2|f2ef g2ag fed^c|d3e fefg a3g|fed^c e4 d4:|

